X: 13789
T: Forty-Two Pound Cheque, The
R: polka
M: 2/4
K: Dmajor
|:Ad Bd/B/|AD FD|G/F/E BE|A/B/A/G/ FD|Ad Bd/B/|
AD FA|1 G/F/E e>f|ed dd/c/:|2 G/F/E A>G|FD Dd||
|:Ad fd|ga/f/ ed|c/B/A eA|e/f/e/d/ cB|
Ad fe/f/|gf e>d|c/B/A Bc|dc dd/B/:|

